X:6435
T:Tartar's Plaid. WM040
O:england
M:C
L:1/8
Q:180
S:Wm.Mittell,1799
R:Reel
A:Kent
K:D
f/g/|adfd adfd|ad fg/a/ be ef/g/|adfd adfd|gbag fdd:|
|:d|AdFd Adfd|AdFd eEEd|AdFd Acfa|gbag fddd|
AdFd Adfd|AdFd eEEg/a/|bgaf gefd|gbag fdd2:|]
